src/assets/logos/discord.svg

<?xml version="1.0" encoding="UTF-8" standalone="no"?>
<!DOCTYPE svg PUBLIC "-//W3C//DTD SVG 1.1//EN" "http://www.w3.org/Graphics/SVG/1.1/DTD/svg11.dtd">
<svg width="100%" height="100%" viewBox="0 0 44 32" version="1.1" xmlns="http://www.w3.org/2000/svg" xmlns:xlink="http://www.w3.org/1999/xlink" xml:space="preserve" xmlns:serif="http://www.serif.com/" style="fill-rule:evenodd;clip-rule:evenodd;stroke-linejoin:round;stroke-miterlimit:2;">
    <g transform="matrix(1,0,0,1,-2,-8)">
        <path d="M40,12C37.071,9.82 33.624,8.441 30,8L29.51,9C33.083,9.733 36.375,11.467 39,14C35,11.93 31,10 24,10C17,10 13.05,11.93 9,14C11.642,11.49 14.926,9.76 18.49,9L18,8C14.376,8.441 10.929,9.82 8,12C5.071,14.18 2.88,19.42 2,34C7.16,40 15,40 15,40L16.64,37.81C13.298,36.67 10.316,34.665 8,32C11.24,34.45 16.13,37 24,37C31.87,37 36.76,34.45 40,32C37.684,34.665 34.702,36.67 31.36,37.81L33,40C33,40 40.84,40 46,34C45.12,19.42 40,12 40,12ZM17.5,30C15.448,29.851 13.875,28.054 14,26C13.875,23.946 15.448,22.149 17.5,22C19.552,22.149 21.125,23.946 21,26C21.125,28.054 19.552,29.851 17.5,30ZM30.5,30C28.448,29.851 26.875,28.054 27,26C26.875,23.946 28.448,22.149 30.5,22C32.552,22.149 34.125,23.946 34,26C34.125,28.054 32.552,29.851 30.5,30Z" style="fill:rgb(239,215,188);fill-rule:nonzero;"/>
    </g>
</svg>

<svg id="Calque_1" data-name="Calque 1" xmlns="http://www.w3.org/2000/svg" viewBox="0 0 44 32"><defs><style>.cls-1{fill:#918e8a;}</style></defs><title>discord</title><path class="cls-1" d="M40,12A21,21,0,0,0,30,8l-.49,1A19.23,19.23,0,0,1,39,14c-4-2.07-8-4-15-4S13.05,11.93,9,14a19.76,19.76,0,0,1,9.49-5L18,8A21,21,0,0,0,8,12S2.88,19.42,2,34c5.16,6,13,6,13,6l1.64-2.19A20,20,0,0,1,8,32c3.24,2.45,8.13,5,16,5s12.76-2.55,16-5a20,20,0,0,1-8.64,5.81L33,40s7.84,0,13-6C45.12,19.42,40,12,40,12ZM17.5,30A3.78,3.78,0,0,1,14,26a3.78,3.78,0,0,1,3.5-4A3.78,3.78,0,0,1,21,26,3.78,3.78,0,0,1,17.5,30Zm13,0A3.78,3.78,0,0,1,27,26a3.78,3.78,0,0,1,3.5-4A3.78,3.78,0,0,1,34,26,3.78,3.78,0,0,1,30.5,30Z" transform="translate(-2 -8)"/></svg>
